X: 7328
T: Cliffs Of Dooneen, The
R: waltz
M: 3/4
K: Dmixolydian
|:D EG|A3 B d2|B2 A3 G|E2 D2 C2|D4 Bc|
d3 e d2|B2 D2 EG|A3 G A2|B4 Bc|
d2 e3 d|B2 D2 G2|A2 B>A GA|B4 (3cBA|
G2 GA Bd|B2 (3ABA G2|E D4 D|D3:|

